hosted/assets/icon/widgets/dark-mode/camera.svg

<svg width="50" height="50" viewBox="0 0 50 50" fill="none" xmlns="http://www.w3.org/2000/svg">
<path d="M19.0938 7H30.8125C31.1328 7 31.3984 7.17578 31.6562 7.5625L33.5625 10.5312C33.7461 10.8203 34.0625 11 34.4062 11H44C45.6562 11 47 12.3438 47 14V38C47 39.6562 45.6562 41 44 41H6C4.34375 41 3 39.6562 3 38V14C3 12.3438 4.34375 11 6 11H15.5C15.8438 11 16.1602 10.8203 16.3438 10.5312L18.2188 7.5625L18.25 7.53125C18.5 7.17969 18.7891 7 19.0938 7ZM10 13C8.35547 13 7 14.3555 7 16C7 17.6445 8.35547 19 10 19C11.6445 19 13 17.6445 13 16C13 14.3555 11.6445 13 10 13ZM25 15C18.9375 15 14 19.9375 14 26C14 32.0625 18.9375 37 25 37C31.0625 37 36 32.0625 36 26C36 19.9375 31.0625 15 25 15Z" fill="#78768B"/>
<path d="M19.0938 5C18.0117 5 17.1055 5.625 16.5625 6.4375C16.5625 6.44922 16.5625 6.45703 16.5625 6.46875L14.9688 9H6C3.25391 9 1 11.2539 1 14V38C1 40.7461 3.25391 43 6 43H44C46.7461 43 49 40.7461 49 38V14C49 11.2539 46.7461 9 44 9H34.9375L33.3438 6.46875C33.3438 6.45703 33.3438 6.44922 33.3438 6.4375C32.8008 5.625 31.8945 5 30.8125 5H19.0938ZM19.0938 7H30.8125C31.1328 7 31.3984 7.17578 31.6562 7.5625L33.5625 10.5312C33.7461 10.8203 34.0625 11 34.4062 11H44C45.6562 11 47 12.3438 47 14V38C47 39.6562 45.6562 41 44 41H6C4.34375 41 3 39.6562 3 38V14C3 12.3438 4.34375 11 6 11H15.5C15.8438 11 16.1602 10.8203 16.3438 10.5312L18.2188 7.5625L18.25 7.53125C18.5 7.17969 18.7891 7 19.0938 7ZM10 13C8.35547 13 7 14.3555 7 16C7 17.6445 8.35547 19 10 19C11.6445 19 13 17.6445 13 16C13 14.3555 11.6445 13 10 13ZM10 15C10.5547 15 11 15.4453 11 16C11 16.5547 10.5547 17 10 17C9.44531 17 9 16.5547 9 16C9 15.4453 9.44531 15 10 15ZM25 15C18.9375 15 14 19.9375 14 26C14 32.0625 18.9375 37 25 37C31.0625 37 36 32.0625 36 26C36 19.9375 31.0625 15 25 15ZM25 17C29.9805 17 34 21.0195 34 26C34 30.9805 29.9805 35 25 35C20.0195 35 16 30.9805 16 26C16 21.0195 20.0195 17 25 17Z" fill="white"/>
</svg>

<svg width="50" height="50" fill="none" xmlns="http://www.w3.org/2000/svg"><path d="M19.094 7h11.718c.32 0 .586.176.844.563l1.907 2.968c.183.29.5.469.843.469H44a3 3 0 013 3v24a3 3 0 01-3 3H6a3 3 0 01-3-3V14a3 3 0 013-3h9.5c.344 0 .66-.18.844-.469l1.875-2.969.031-.03c.25-.352.54-.532.844-.532zM10 13c-1.645 0-3 1.355-3 3s1.355 3 3 3 3-1.355 3-3-1.355-3-3-3zm15 2c-6.063 0-11 4.938-11 11 0 6.063 4.938 11 11 11 6.063 0 11-4.938 11-11 0-6.063-4.938-11-11-11z" fill="#78768B"/><path d="M19.094 5c-1.082 0-1.989.625-2.532 1.438v.03L14.97 9H6c-2.746 0-5 2.254-5 5v24c0 2.746 2.254 5 5 5h38c2.746 0 5-2.254 5-5V14c0-2.746-2.254-5-5-5h-9.063l-1.593-2.531v-.032C32.8 5.625 31.894 5 30.812 5H19.095zm0 2h11.718c.32 0 .586.176.844.563l1.907 2.968c.183.29.5.469.843.469H44a3 3 0 013 3v24a3 3 0 01-3 3H6a3 3 0 01-3-3V14a3 3 0 013-3h9.5c.344 0 .66-.18.844-.469l1.875-2.969.031-.03c.25-.352.54-.532.844-.532zM10 13c-1.645 0-3 1.355-3 3s1.355 3 3 3 3-1.355 3-3-1.355-3-3-3zm0 2c.555 0 1 .445 1 1 0 .555-.445 1-1 1-.555 0-1-.445-1-1 0-.555.445-1 1-1zm15 0c-6.063 0-11 4.938-11 11 0 6.063 4.938 11 11 11 6.063 0 11-4.938 11-11 0-6.063-4.938-11-11-11zm0 2c4.98 0 9 4.02 9 9s-4.02 9-9 9-9-4.02-9-9 4.02-9 9-9z" fill="#fff"/></svg>
